assets/img/ticon4.svg

<svg width="64" height="64" viewBox="0 0 64 64" fill="none" xmlns="http://www.w3.org/2000/svg">
<path d="M33.7515 2.534L31.1969 4.55682L31.5618 6.76354L35.3936 8.84766H43.5437L46.5848 5.90538L45.0035 2.534H33.7515Z" fill="#FFC940"/>
<path d="M35.4355 13.5063L24.2442 18.0423L17.9187 24.4173L14.391 36.4316L18.5269 51.4495L29.4749 60.5216L43.2206 61.3184L55.4459 55.0661L61.1631 46.1779L62.8662 35.0217L57.8179 21.7202L47.8431 14.487L35.4355 13.5063Z" fill="#FFC940"/>
<path d="M32.3945 20.678L23.4536 26.4399L20.8383 33.3666L21.7506 44.0937L29.4142 53.84L40.9095 56.108L51.1276 51.0203L56.6624 42.3773L55.9326 31.9567L49.8504 22.946L40.9095 19.5746L32.3945 20.678Z" fill="white"/>
<path d="M38.5234 35.6159L36.781 36.9739L36.3396 38.3788C36.7965 38.9095 37.7289 39.9897 37.8032 40.0646C37.8776 40.1395 39.5844 39.7524 40.4285 39.5495L41.1022 36.9739L38.5234 35.6159Z" fill="#FFC940"/>
<path d="M63.8766 34.969C63.302 29.144 60.7198 23.6524 56.6055 19.5058C53.0894 15.9624 48.7859 13.6853 44.2575 12.6728V9.47196C46.1071 9.00823 47.4818 7.32099 47.4818 5.31552C47.4818 2.95366 45.5753 1.03223 43.2318 1.03223H34.2316C31.8881 1.03223 29.9816 2.95366 29.9816 5.31552C29.9816 7.32086 31.3563 9.0081 33.2057 9.47196V12.6818C28.6913 13.6986 24.402 15.9725 20.8959 19.506C20.1287 20.2792 19.4212 21.0904 18.7735 21.9335C18.7422 21.9311 18.7108 21.9287 18.6788 21.9287H9.77102C9.08076 21.9287 8.521 22.4927 8.521 23.1885C8.521 23.8842 9.08076 24.4483 9.77102 24.4483H17.0726C16.1561 25.9947 15.4171 27.6187 14.8546 29.2904H1.25002C0.559758 29.2904 0 29.8544 0 30.5502C0 31.246 0.559758 31.81 1.25002 31.81H14.1482C13.788 33.4038 13.5812 35.0257 13.5278 36.6523H8.00012C7.30986 36.6523 6.7501 37.2163 6.7501 37.912C6.7501 38.6078 7.30986 39.1718 8.00012 39.1718H13.5677C13.6732 40.8025 13.9333 42.4246 14.3482 44.0141H6.25009C5.55983 44.0141 5.00008 44.5781 5.00008 45.2739C5.00008 45.9697 5.55983 46.5337 6.25009 46.5337H15.146C16.3722 49.803 18.2886 52.8672 20.8959 55.4949C25.0142 59.6454 30.4688 62.2484 36.2547 62.8245C37.0804 62.9066 37.9068 62.9473 38.7321 62.9473C43.6099 62.9473 48.4257 61.5246 52.512 58.8428C53.0905 58.4631 53.2542 57.6826 52.8774 57.0996C52.5007 56.5165 51.7263 56.3516 51.1478 56.7313C42.203 62.6016 30.2237 61.3324 22.6637 53.7133C13.7933 44.7735 13.7933 30.2276 22.6637 21.2877C31.534 12.3481 45.9671 12.3481 54.8376 21.2877C62.3876 28.8968 63.6538 40.9595 57.8484 49.9698C57.4724 50.5533 57.637 51.3336 58.2159 51.7125C58.7951 52.0914 59.5691 51.9255 59.945 51.3419C63.0468 46.5276 64.4431 40.7131 63.8766 34.969ZM32.4816 5.31565C32.4816 4.34309 33.2666 3.55194 34.2316 3.55194H43.2318C44.1968 3.55194 44.9818 4.34309 44.9818 5.31565C44.9818 6.28821 44.1968 7.07936 43.2318 7.07936H43.0075H34.4558H34.2316C33.2666 7.07936 32.4816 6.28808 32.4816 5.31565ZM35.7058 12.2487V9.59895H41.7575V12.2441C39.748 12.0033 37.7149 12.0048 35.7058 12.2487Z" fill="black"/>
<path d="M38.7508 17.9573C28.0584 17.9573 19.3594 26.7242 19.3594 37.5003C19.3594 48.2765 28.0584 57.0434 38.7508 57.0434C49.4432 57.0434 58.1422 48.2765 58.1422 37.5003C58.1422 26.7242 49.4432 17.9573 38.7508 17.9573ZM38.7508 54.5238C29.4368 54.5238 21.8594 46.887 21.8594 37.5003C21.8594 28.1136 29.4368 20.4769 38.7508 20.4769C48.0648 20.4769 55.6422 28.1136 55.6422 37.5003C55.6422 46.887 48.0648 54.5238 38.7508 54.5238Z" fill="black"/>
<path d="M46.6578 27.7498L40.4665 33.9895C39.9487 33.7314 39.3663 33.5857 38.7507 33.5857C38.1349 33.5857 37.5527 33.7314 37.0349 33.9895L34.264 31.1969C33.7757 30.7049 32.9845 30.7049 32.4961 31.1969C32.008 31.6888 32.008 32.4865 32.4961 32.9785L35.267 35.7711C35.0109 36.2929 34.8664 36.8798 34.8664 37.5002C34.8664 39.6588 36.6088 41.4149 38.7507 41.4149C40.8926 41.4149 42.635 39.6588 42.635 37.5002C42.635 36.8798 42.4904 36.2929 42.2344 35.7711L48.244 29.7145L48.4256 29.5314C48.9137 29.0395 48.9137 28.2418 48.4256 27.7498C47.9375 27.2579 47.1462 27.2579 46.6578 27.7498ZM38.7507 38.8955C37.9874 38.8955 37.3664 38.2696 37.3664 37.5004C37.3664 36.7311 37.9874 36.1053 38.7507 36.1053C39.514 36.1053 40.135 36.7311 40.135 37.5004C40.135 38.2696 39.514 38.8955 38.7507 38.8955Z" fill="black"/>
<path d="M52.1158 36.2559H50.9576C50.2674 36.2559 49.7076 36.8199 49.7076 37.5156C49.7076 38.2114 50.2674 38.7754 50.9576 38.7754H52.1158C52.806 38.7754 53.3658 38.2114 53.3658 37.5156C53.3658 36.8199 52.806 36.2559 52.1158 36.2559Z" fill="black"/>
<path d="M26.5437 36.2251H25.3857C24.6955 36.2251 24.1357 36.7891 24.1357 37.4849C24.1357 38.1806 24.6955 38.7446 25.3857 38.7446H26.5437C27.234 38.7446 27.7937 38.1806 27.7937 37.4849C27.7937 36.7891 27.234 36.2251 26.5437 36.2251Z" fill="black"/>
<path d="M38.766 26.4576C39.4562 26.4576 40.016 25.8936 40.016 25.1978V24.0308C40.016 23.335 39.4562 22.771 38.766 22.771C38.0757 22.771 37.516 23.335 37.516 24.0308V25.1978C37.516 25.8936 38.0757 26.4576 38.766 26.4576Z" fill="black"/>
<path d="M38.7355 48.5432C38.0452 48.5432 37.4855 49.1072 37.4855 49.803V50.97C37.4855 51.6658 38.0452 52.2298 38.7355 52.2298C39.4257 52.2298 39.9855 51.6658 39.9855 50.97V49.803C39.9855 49.1072 39.4257 48.5432 38.7355 48.5432Z" fill="black"/>
<path fill-rule="evenodd" clip-rule="evenodd" d="M38.7355 14.5357C26.1426 14.5357 15.934 24.8241 15.934 37.5155C15.934 50.2069 26.1426 60.4952 38.7355 60.4952C51.3284 60.4952 61.5369 50.2069 61.5369 37.5155C61.5369 24.8241 51.3284 14.5357 38.7355 14.5357ZM13.4807 37.5155C13.4807 23.4586 24.7877 12.0632 38.7355 12.0632C52.6833 12.0632 63.9903 23.4586 63.9903 37.5155C63.9903 51.5724 52.6833 62.9678 38.7355 62.9678C24.7877 62.9678 13.4807 51.5724 13.4807 37.5155Z" fill="black"/>
</svg>

<svg width="64" height="64" fill="none" xmlns="http://www.w3.org/2000/svg"><path d="M33.752 2.534l-2.555 2.023.365 2.207 3.832 2.084h8.15l3.04-2.943-1.58-3.371H33.752zm1.683 10.972l-11.19 4.536-6.326 6.375-3.528 12.015 4.136 15.017 10.948 9.073 13.746.796 12.225-6.252 5.717-8.888 1.703-11.156-5.048-13.302-9.975-7.233-12.408-.98z" fill="#FFC940"/><path d="M32.395 20.678l-8.941 5.762-2.616 6.927.913 10.727 7.663 9.746 11.495 2.268 10.219-5.088 5.534-8.643-.73-10.42-6.082-9.011-8.94-3.371-8.515 1.103z" fill="#fff"/><path d="M38.523 35.616l-1.742 1.358-.441 1.405c.456.53 1.389 1.61 1.463 1.686.075.075 1.781-.313 2.626-.515l.673-2.576-2.579-1.358z" fill="#FFC940"/><path d="M63.877 34.969a25.579 25.579 0 00-7.272-15.463 25.046 25.046 0 00-12.347-6.833V9.472a4.284 4.284 0 003.224-4.156c0-2.362-1.907-4.284-4.25-4.284h-9c-2.344 0-4.25 1.922-4.25 4.284a4.284 4.284 0 003.224 4.156v3.21a25.045 25.045 0 00-12.31 6.824 25.513 25.513 0 00-2.123 2.427 1.233 1.233 0 00-.094-.004H9.77c-.69 0-1.25.564-1.25 1.26 0 .695.56 1.26 1.25 1.26h7.302a25.35 25.35 0 00-2.218 4.841H1.25c-.69 0-1.25.564-1.25 1.26 0 .696.56 1.26 1.25 1.26h12.898a25.81 25.81 0 00-.62 4.842H8c-.69 0-1.25.564-1.25 1.26 0 .696.56 1.26 1.25 1.26h5.568a25.76 25.76 0 00.78 4.842H6.25c-.69 0-1.25.564-1.25 1.26 0 .696.56 1.26 1.25 1.26h8.896a25.322 25.322 0 005.75 8.96 25.216 25.216 0 0015.359 7.33 25.17 25.17 0 0016.257-3.982c.578-.379.742-1.16.365-1.742a1.244 1.244 0 00-1.73-.369c-8.944 5.87-20.923 4.601-28.483-3.018-8.87-8.94-8.87-23.485 0-32.425 8.87-8.94 23.303-8.94 32.174 0 7.55 7.609 8.816 19.671 3.01 28.682a1.266 1.266 0 00.368 1.742c.58.38 1.353.213 1.729-.37 3.102-4.814 4.498-10.629 3.932-16.373zM32.482 5.316c0-.973.785-1.764 1.75-1.764h9c.965 0 1.75.791 1.75 1.764 0 .972-.785 1.763-1.75 1.763h-9c-.965 0-1.75-.79-1.75-1.763zm3.224 6.933v-2.65h6.051v2.645a25.256 25.256 0 00-6.051.005z" fill="#000"/><path d="M38.75 17.957c-10.692 0-19.39 8.767-19.39 19.543s8.698 19.543 19.39 19.543c10.693 0 19.392-8.767 19.392-19.543s-8.699-19.543-19.391-19.543zm0 36.567c-9.313 0-16.89-7.637-16.89-17.024 0-9.386 7.577-17.023 16.89-17.023 9.315 0 16.892 7.637 16.892 17.023 0 9.387-7.577 17.024-16.891 17.024z" fill="#000"/><path d="M46.658 27.75l-6.191 6.24a3.835 3.835 0 00-1.716-.404c-.616 0-1.198.145-1.716.404l-2.771-2.793a1.243 1.243 0 00-1.768 0 1.267 1.267 0 000 1.781l2.771 2.793a3.914 3.914 0 00-.4 1.73c0 2.158 1.742 3.914 3.884 3.914s3.884-1.756 3.884-3.915a3.93 3.93 0 00-.4-1.729l6.009-6.056.182-.184a1.267 1.267 0 000-1.781 1.243 1.243 0 00-1.768 0zM38.75 38.895a1.391 1.391 0 01-1.385-1.395c0-.769.621-1.395 1.385-1.395.763 0 1.384.626 1.384 1.395a1.39 1.39 0 01-1.384 1.395zm13.366-2.639h-1.158c-.69 0-1.25.564-1.25 1.26 0 .695.56 1.26 1.25 1.26h1.158c.69 0 1.25-.565 1.25-1.26 0-.696-.56-1.26-1.25-1.26zm-25.572-.031h-1.158c-.69 0-1.25.564-1.25 1.26 0 .696.56 1.26 1.25 1.26h1.158c.69 0 1.25-.564 1.25-1.26 0-.696-.56-1.26-1.25-1.26zm12.222-9.767c.69 0 1.25-.564 1.25-1.26V24.03c0-.696-.56-1.26-1.25-1.26s-1.25.564-1.25 1.26v1.167c0 .696.56 1.26 1.25 1.26zm-.03 22.085c-.69 0-1.25.564-1.25 1.26v1.167c0 .696.56 1.26 1.25 1.26s1.25-.564 1.25-1.26v-1.167c0-.696-.56-1.26-1.25-1.26z" fill="#000"/><path fill-rule="evenodd" clip-rule="evenodd" d="M38.736 14.536c-12.593 0-22.802 10.288-22.802 22.98 0 12.69 10.209 22.98 22.802 22.98 12.592 0 22.8-10.29 22.8-22.98 0-12.692-10.208-22.98-22.8-22.98zM13.48 37.516c0-14.057 11.307-25.453 25.255-25.453 13.947 0 25.254 11.396 25.254 25.453 0 14.056-11.307 25.452-25.255 25.452-13.947 0-25.254-11.396-25.254-25.453z" fill="#000"/></svg>
